images/types-item-3.svg

<svg width="44" height="44" viewBox="0 0 44 44" fill="none" xmlns="http://www.w3.org/2000/svg">
<g clip-path="url(#clip0_0_566)">
<path fill-rule="evenodd" clip-rule="evenodd" d="M38.75 26.5C38.025 26.5 36.2962 27.179 35.3262 27.668C34.2072 28.255 32.874 28.5723 31.5 28.5723C30.126 28.5723 28.7935 28.2533 27.6465 27.6523C26.5585 27.1063 24.931 26.502 24.25 26.502C21.355 26.502 19 28.857 19 31.752C19 34.647 21.355 37.002 24.25 37.002C24.975 37.002 26.7038 36.324 27.6738 35.834C28.7928 35.247 30.126 34.9297 31.5 34.9297C32.874 34.9297 34.2065 35.2467 35.3535 35.8477C36.4415 36.3937 38.069 37 38.75 37C41.645 37 44 34.645 44 31.75C44 28.855 41.645 26.5 38.75 26.5ZM27 29.4609C27 28.9089 26.552 28.4609 26 28.4609C25.448 28.4609 25 28.9089 25 29.4609C25 30.0129 25.448 30.4609 26 30.4609C26.552 30.4609 27 30.0129 27 29.4609ZM38 29.4609C38 28.9089 37.552 28.4609 37 28.4609C36.448 28.4609 36 28.9089 36 29.4609C36 30.0129 36.448 30.4609 37 30.4609C37.552 30.4609 38 30.0129 38 29.4609ZM42 30.4609C42 29.9089 41.552 29.4609 41 29.4609C40.448 29.4609 40 29.9089 40 30.4609C40 31.0129 40.448 31.4609 41 31.4609C41.552 31.4609 42 31.0129 42 30.4609ZM23 31.4609C23 30.9089 22.552 30.4609 22 30.4609C21.448 30.4609 21 30.9089 21 31.4609C21 32.0129 21.448 32.4609 22 32.4609C22.552 32.4609 23 32.0129 23 31.4609ZM30 32.4609C30 31.9089 29.552 31.4609 29 31.4609C28.448 31.4609 28 31.9089 28 32.4609C28 33.0129 28.448 33.4609 29 33.4609C29.552 33.4609 30 33.0129 30 32.4609ZM34 32.4609C34 31.9089 33.552 31.4609 33 31.4609C32.448 31.4609 32 31.9089 32 32.4609C32 33.0129 32.448 33.4609 33 33.4609C33.552 33.4609 34 33.0129 34 32.4609ZM25 34.4609C25 33.9089 24.552 33.4609 24 33.4609C23.448 33.4609 23 33.9089 23 34.4609C23 35.0129 23.448 35.4609 24 35.4609C24.552 35.4609 25 35.0129 25 34.4609ZM40 34.4609C40 33.9089 39.552 33.4609 39 33.4609C38.448 33.4609 38 33.9089 38 34.4609C38 35.0129 38.448 35.4609 39 35.4609C39.552 35.4609 40 35.0129 40 34.4609Z" fill="#142245"/>
<path fill-rule="evenodd" clip-rule="evenodd" d="M19 36.7402V38.75C19 41.645 21.355 44 24.25 44C24.975 44 26.7038 43.322 27.6738 42.832C28.7928 42.245 30.126 41.9277 31.5 41.9277C32.874 41.9277 34.2065 42.2467 35.3535 42.8477C36.4415 43.3947 38.069 44 38.75 44C41.645 44 44 41.645 44 38.75V36.7402C42.679 38.1292 40.818 39 38.75 39C37.163 39 34.4258 37.6191 34.4258 37.6191C33.6118 37.1921 32.605 36.9297 31.5 36.9297C30.395 36.9297 29.3882 37.1931 28.5742 37.6191C28.5742 37.6191 25.837 39 24.25 39C22.182 39 20.321 38.1292 19 36.7402ZM30 40.4609C30 39.9089 29.552 39.4609 29 39.4609C28.448 39.4609 28 39.9089 28 40.4609C28 41.0129 28.448 41.4609 29 41.4609C29.552 41.4609 30 41.0129 30 40.4609ZM36 40.4609C36 39.9089 35.552 39.4609 35 39.4609C34.448 39.4609 34 39.9089 34 40.4609C34 41.0129 34.448 41.4609 35 41.4609C35.552 41.4609 36 41.0129 36 40.4609ZM42 40.4609C42 39.9089 41.552 39.4609 41 39.4609C40.448 39.4609 40 39.9089 40 40.4609C40 41.0129 40.448 41.4609 41 41.4609C41.552 41.4609 42 41.0129 42 40.4609ZM25 41.4609C25 40.9089 24.552 40.4609 24 40.4609C23.448 40.4609 23 40.9089 23 41.4609C23 42.0129 23.448 42.4609 24 42.4609C24.552 42.4609 25 42.0129 25 41.4609Z" fill="#96A4D3"/>
<path fill-rule="evenodd" clip-rule="evenodd" d="M22 4C18.145 4 14.5714 5.17649 11.5742 7.16016C10.8119 6.45983 9.7541 6 8.5 6C7.08333 6 5.89356 6.56726 5.12695 7.42969C4.36035 8.29212 4 9.40278 4 10.5C4 11.5972 4.36035 12.7079 5.12695 13.5703C5.17692 13.6265 5.23551 13.6759 5.29415 13.7254C5.32952 13.7552 5.36491 13.785 5.39844 13.8164C3.88101 16.5415 3 19.6658 3 23C3 31.932 9.20444 39.4243 17.5234 41.4453C17.1894 40.6113 17 39.703 17 38.75V32.8359V32.7852C13.444 30.9602 11 27.265 11 23C11 16.935 15.935 12 22 12C28.065 12 33 16.935 33 23C33 24.226 32.79 25.4019 32.418 26.5039C33.161 26.4019 33.8448 26.1859 34.4258 25.8809C34.4258 25.8809 37.163 24.5 38.75 24.5C39.501 24.5 40.2253 24.6142 40.9062 24.8262C40.9643 24.2252 41 23.617 41 23C41 12.523 32.477 4 22 4ZM10.377 8.75781C9.97689 8.30774 9.41667 8 8.5 8C7.58333 8 7.02311 8.30774 6.62305 8.75781C6.22299 9.20788 6 9.84722 6 10.5C6 11.1528 6.22299 11.7921 6.62305 12.2422C7.02311 12.6923 7.58333 13 8.5 13C9.41667 13 9.97689 12.6923 10.377 12.2422C10.777 11.7921 11 11.1528 11 10.5C11 9.84722 10.777 9.20788 10.377 8.75781Z" fill="#142245"/>
<path d="M22 14C17.037 14 13 18.038 13 23C13 26.159 14.6384 28.9389 17.1074 30.5449C17.6834 27.1159 20.658 24.5 24.25 24.5C25.837 24.5 28.5742 25.8809 28.5742 25.8809C29.0822 26.1479 29.6726 26.3401 30.3086 26.4551C30.7526 25.3901 31 24.224 31 23C31 18.038 26.963 14 22 14Z" fill="#AB917A"/>
<path fill-rule="evenodd" clip-rule="evenodd" d="M40 1C38.75 1 37.6852 1.50476 37.002 2.27344C36.3187 3.04212 36 4.02778 36 5C36 5.97222 36.3187 6.95788 37.002 7.72656C37.6852 8.49524 38.75 9 40 9C41.25 9 42.3148 8.49524 42.998 7.72656C43.6813 6.95788 44 5.97222 44 5C44 4.02778 43.6813 3.04212 42.998 2.27344C42.3148 1.50476 41.25 1 40 1ZM41.502 3.60156C41.1852 3.24524 40.75 3 40 3C39.25 3 38.8148 3.24524 38.498 3.60156C38.1813 3.95788 38 4.47222 38 5C38 5.52778 38.1813 6.04212 38.498 6.39844C38.8148 6.75476 39.25 7 40 7C40.75 7 41.1852 6.75476 41.502 6.39844C41.8187 6.04212 42 5.52778 42 5C42 4.47222 41.8187 3.95788 41.502 3.60156Z" fill="#96A4D3"/>
<path fill-rule="evenodd" clip-rule="evenodd" d="M3 0C2.08333 0 1.26856 0.379756 0.751953 0.960938C0.235347 1.54212 0 2.27778 0 3C0 3.72222 0.235347 4.45788 0.751953 5.03906C1.26856 5.62024 2.08333 6 3 6C3.91667 6 4.73144 5.62024 5.24805 5.03906C5.76465 4.45788 6 3.72222 6 3C6 2.27778 5.76465 1.54212 5.24805 0.960938C4.73144 0.379756 3.91667 0 3 0ZM3.75195 2.28906C3.60189 2.12024 3.41667 2 3 2C2.58333 2 2.39811 2.12024 2.24805 2.28906C2.09799 2.45788 2 2.72222 2 3C2 3.27778 2.09799 3.54212 2.24805 3.71094C2.39811 3.87976 2.58333 4 3 4C3.41667 4 3.60189 3.87976 3.75195 3.71094C3.90201 3.54212 4 3.27778 4 3C4 2.72222 3.90201 2.45788 3.75195 2.28906Z" fill="#96A4D3"/>
</g>
<defs>
<clipPath id="clip0_0_566">
<rect width="44" height="44" fill="white"/>
</clipPath>
</defs>
</svg>

<svg width="44" height="44" fill="none" xmlns="http://www.w3.org/2000/svg"><g clip-path="url(#clip0_0_566)"><path fill-rule="evenodd" clip-rule="evenodd" d="M38.75 26.5c-.725 0-2.454.679-3.424 1.168-1.119.587-2.452.904-3.826.904s-2.706-.319-3.854-.92c-1.088-.546-2.715-1.15-3.396-1.15a5.256 5.256 0 00-5.25 5.25 5.256 5.256 0 005.25 5.25c.725 0 2.454-.678 3.424-1.168 1.119-.587 2.452-.904 3.826-.904s2.706.317 3.853.918C36.441 36.394 38.07 37 38.75 37A5.256 5.256 0 0044 31.75a5.256 5.256 0 00-5.25-5.25zM27 29.46a1 1 0 10-2 .002 1 1 0 002-.001zm11 0a1 1 0 10-2 .002 1 1 0 002-.001zm4 1a1 1 0 10-2 .002 1 1 0 002-.001zm-19 1a1 1 0 10-2 .002 1 1 0 002-.001zm7 1a1 1 0 10-2 .002 1 1 0 002-.001zm4 0a1 1 0 10-2 .002 1 1 0 002-.001zm-9 2a1 1 0 10-2 .002 1 1 0 002-.001zm15 0a1 1 0 10-2 .002 1 1 0 002-.001z" fill="#142245"/><path fill-rule="evenodd" clip-rule="evenodd" d="M19 36.74v2.01A5.256 5.256 0 0024.25 44c.725 0 2.454-.678 3.424-1.168 1.119-.587 2.452-.904 3.826-.904s2.706.319 3.853.92C36.441 43.395 38.07 44 38.75 44A5.256 5.256 0 0044 38.75v-2.01A7.224 7.224 0 0138.75 39c-1.587 0-4.324-1.38-4.324-1.38-.814-.428-1.821-.69-2.926-.69-1.105 0-2.112.263-2.926.69 0 0-2.737 1.38-4.324 1.38A7.224 7.224 0 0119 36.74zm11 3.72a1 1 0 10-2 .002 1 1 0 002-.001zm6 0a1 1 0 10-2 .002 1 1 0 002-.001zm6 0a1 1 0 10-2 .002 1 1 0 002-.001zm-17 1a1 1 0 10-2 .002 1 1 0 002-.001z" fill="#96A4D3"/><path fill-rule="evenodd" clip-rule="evenodd" d="M22 4c-3.855 0-7.429 1.176-10.426 3.16C10.812 6.46 9.754 6 8.5 6c-1.417 0-2.606.567-3.373 1.43C4.36 8.292 4 9.403 4 10.5c0 1.097.36 2.208 1.127 3.07.05.056.109.106.167.155.036.03.07.06.104.091A18.813 18.813 0 003 23c0 8.932 6.204 16.424 14.523 18.445A7.232 7.232 0 0117 38.75v-5.964c-3.556-1.826-6-5.521-6-9.786 0-6.065 4.935-11 11-11s11 4.935 11 11c0 1.226-.21 2.402-.582 3.504a6.129 6.129 0 002.008-.623S37.163 24.5 38.75 24.5c.751 0 1.475.114 2.156.326.058-.6.094-1.209.094-1.826 0-10.477-8.523-19-19-19zM10.377 8.758C9.977 8.308 9.417 8 8.5 8s-1.477.308-1.877.758C6.223 9.208 6 9.848 6 10.5c0 .653.223 1.292.623 1.742.4.45.96.758 1.877.758s1.477-.308 1.877-.758c.4-.45.623-1.09.623-1.742 0-.653-.223-1.292-.623-1.742z" fill="#142245"/><path d="M22 14c-4.963 0-9 4.038-9 9a8.994 8.994 0 004.107 7.545c.576-3.43 3.551-6.045 7.143-6.045 1.587 0 4.324 1.38 4.324 1.38.508.268 1.099.46 1.735.575A8.956 8.956 0 0031 23c0-4.962-4.037-9-9-9z" fill="#AB917A"/><path fill-rule="evenodd" clip-rule="evenodd" d="M40 1c-1.25 0-2.315.505-2.998 1.273C36.319 3.043 36 4.028 36 5s.319 1.958 1.002 2.727C37.685 8.495 38.75 9 40 9c1.25 0 2.315-.505 2.998-1.273C43.681 6.957 44 5.972 44 5s-.319-1.958-1.002-2.727C42.315 1.505 41.25 1 40 1zm1.502 2.602C41.185 3.245 40.75 3 40 3s-1.185.245-1.502.602C38.181 3.958 38 4.472 38 5c0 .528.181 1.042.498 1.398.317.357.752.602 1.502.602s1.185-.245 1.502-.602C41.819 6.042 42 5.528 42 5c0-.528-.181-1.042-.498-1.398zM3 0C2.083 0 1.269.38.752.96A3.05 3.05 0 000 3c0 .722.235 1.458.752 2.04C1.269 5.62 2.083 6 3 6c.917 0 1.731-.38 2.248-.96A3.05 3.05 0 006 3 3.05 3.05 0 005.248.96C4.731.38 3.917 0 3 0zm.752 2.29C3.602 2.12 3.417 2 3 2s-.602.12-.752.29C2.098 2.457 2 2.721 2 3c0 .278.098.542.248.71.15.17.335.29.752.29s.602-.12.752-.29C3.902 3.543 4 3.279 4 3a1.09 1.09 0 00-.248-.71z" fill="#96A4D3"/></g><defs><clipPath id="clip0_0_566"><path fill="#fff" d="M0 0h44v44H0z"/></clipPath></defs></svg>
